X:1
T:Come unto Me
T:Come unto Me
T:Edmund Simon Lorenz
T:Anna Share, 1889
T:Public Domain Courtesy of the Cyber Hymnal™
T:Public Domain Courtesy of the Cyber Hymnal™
C:Edmund Simon Lorenz
Z:Public Domain
Z:Courtesy of the Cyber Hymnal™
%%score ( 1 2 ) ( 3 4 )
L:1/8
Q:1/4=95
M:4/4
K:G
V:1 treble 
V:2 treble 
V:3 bass 
V:4 bass 
V:1
 [B,D]2 [DB]>[^C^A] [DB]2 [B,G]2 | [EG]>[EA] [EG][CE] [B,D]2 [B,G]2 | [DF]2 [DA]>[D^G] [DA]2 z2 | %3
w: 1.~Sweet- ly the Sav- ior­’s|voice is ev- er call- ing,|“Come un- to Me!|
w: 2.~Long have I sought you|lost in dark- ness drear- y,|“Come un- to Me!|
w: 3.~Here is the rest that|I a- lone can give you,|“Come un- to Me!|
w: 4.~Je- sus, for- sak- ing|all that would de- ceive us,|Come we to Thee!|
 [DG]2 [GB]>[G^A] [GB]2 z2 | [B,D]2 [DB]>[^C^A] [DB]2 [B,G]2 | [EG]>[EA] [EG][CE] [B,D]2 [DG]2 | %6
w: Come un- to Me!|See, sha- dows dark a-|round you now are fall- ing,|
w: Come un- to Me!|I am the re- fuge|wait- ing for the wea- ry,|
w: Come un- to Me!|Come, for My heart is|long- ing to for- give you,|
w: Come we to Thee!|Safe in Thy lov- ing|arms, O Lord, re- ceive us,|
 [EA]4 [DG]2 [DF]2 | [DG]6 z2 ||"^Refrain" [Bd]2 [GB]>[Ac] [Bd]>[ce] [Bd]2 | %9
w: Come un- to|Me!”||
w: Come un- to|Me!”|Je- sus, the Lord of all,|
w: Come un- to|Me!”||
w: Com- ing to|Thee!||
 [Ac]2 [FA]>[GB] [Ac]>[Bd] [Ac]2 | [Bd]2 [GB]>[DA] [EG]2 [DF]>[EG] | [EA]>[EG] [DF]>[^CE] D2 z2 | %12
w: |||
w: Oh, hear His lov- ing call:|“Come un- to Me, all ye|wear- y ones, oh come!|
w: |||
w: |||
 [DG]2 [DB]>[^C^A] [DB]2 z2 | [FA]2 [Ac]>[^GB] [Ac]2 z2 | [Bd]2 [GB]>[DA] [EG]>[DF] [EG]>[GA] | %15
w: |||
w: Come un- to Me!|Come un- to Me!|Come, all ye wea- ry ones, no|
w: |||
w: |||
 [GB]2 [DA]2 [DG]2 z2 |] %16
w: |
w: long- er roam.”|
w: |
w: |
V:2
 x8 | x8 | x8 | x8 | x8 | x8 | x8 | x8 || x8 | x8 | x8 | x4 D2 x2 | x8 | x8 | x8 | x8 |] %16
V:3
 G,2 G,>G, G,2 G,2 | [C,G,]>[C,G,] [C,G,][C,G,] [G,,G,]2 [G,,G,]2 | %2
 [D,A,]2 [D,C]>[D,B,] [D,C]2 z2 | [G,B,]2 [G,D]>[G,^C] [G,D]2 z2 | G,2 G,>G, G,2 G,2 | %5
 [C,G,]>[C,G,] [C,G,][C,G,] [G,,G,]2 [G,,B,]2 | [C,C]4 [D,B,]2 [D,A,]2 | [G,,B,]6 z2 || G,,8 | %9
 D,,8 | [G,D]2 [G,D]>[G,B,] [C,C]2 [C,C]>[C,C] | [A,,^C]>[A,,C] [A,,A,]>[A,,G,] [D,F,]2 z2 | %12
 [G,B,]2 z6 | [D,D]2 z6 | [G,D]2 [G,D]>[G,B,] [C,C]>[C,C] [C,C]>[C,E] | %15
 [D,D]2 [D,C]2 [G,,B,]2 z2 |] %16
V:4
 G,2 G,>G, G,2 G,2 | x8 | x8 | x8 | G,2 G,>G, G,2 G,2 | x8 | x8 | x8 || x8 | x8 | x8 | x8 | x8 | %13
 x8 | x8 | x8 |] %16

